X:5
T:Robin Hood and Guy of Gisborne.
M:C
L:1/8
K:Eb
%%score 1 2
V:1 clef-treble
V:2 clef-bass octave=-1
[V:1][EGc]2|e3e (de)(fd) & [EB]2x2 A4|[Ge]2B2 B2c2 & x6E2-|B2A2 G2[DF]2 &E2 E4x2|
w:When shaws are sheen,* and* shrubs full fair, And leaves both large and
w:|[woods are bright,]|||
[V:2]c2|G4F4|E6A2|G2c2 B2[B,A]2|
[V:1]E6[EAc]2|e3e defd &[EB]2x2A4|[Ge]2B2 B2c2 &x6E2-|B2A2 G2[DB]2 & E2 E4x2|
w:long, It's mer-ry walk-ing in the fair fo-rest To hear the small birds'
[V:2][EG]2c2 B2A2|G4F4|E6A2|G2c2 B2[B,A]2|
[V:1]E6||[EGc]2|e3e [Ad]2[G=B]2|(ce)(dc) [G=B]2[=B,G]2 & G2F2x4|[CA]2[Gc]2 c2=B2 & x4F4|
w:song. The wood-weele sang, and would* not* cease, Sit-ting up-on the
[V:2][EG]6||[CG]2|[CGc]4 F2G2|A4 G2G2|F2E2 D2G2|
[V:1][Ec]6[EAc]2|e3e (de)(fd) & [EB]2x2 A4|[Ge]2B2 [EB]2yc2 & x6E2-|B2A2 yG2[DF]2 & E2E4x2|E6||
w:spray, So loud he wa-*ken'd* Ro-bin Hood In~the Green wood where he lay.
[V:2]C2c2B2A2|A2G2F2B,2|C2G,2G,2A2|G2c2 B2[B,A]2|[EG]6||

